X: 18
T: Maudabawn Chapel
C: Ed Reavy
Z: mockchoi
S: https://thesession.org/tunes/302#setting54360
R: reel
M: 4/4
L: 1/8
K: Edor
|: GEED E2 DB, | G,A,B,D EGDB, | G,A,B,D GABd | gabg eaaf | !
gabg efge | dged Bdef | g2fa gedB |1 A=cBA GFED :|2 A=cBA GEED || !
|: E2 BE dEBE | E2 BE AFDF | E5/2 F GFGB | AFDF A,DFD | !
EBBA B5/2 A | BAGA Bcde | f5/2 a gfec |1 dBAF GEED :|2 dBAG AFED ||

%-------------------- TUNE SEPARATOR --------------------%

